X:1
T:Norges Fjeld
T:Norges Fjeld
T:Henrik Wergeland
%%score { ( 1 3 ) | 2 }
L:1/8
Q:1/4=70
M:2/4
K:F
V:1 treble nm="Piano" snm="Pno."
V:3 treble 
V:2 bass 
V:1
 [A,F] [A,F] [A,F] [FA] | [EG] [EG] [EG] [GB] | [FA] [CF] [DG] [B,E] | [A,F]2 z2 | %4
w: 1.Nor- ges bed- ste|Værn og Fæ- ste|er dets gam- le|Fjeld;|
w: 2.Vel- ten ven- ter|paa dets Skren- ter,|Bon- den pas- ser|paa,|
w: 3.In- gen Fej- de|kan han spej- de.|Hæng da Rif- len|hen!|
 [^FA] [FA] [FA] [Ac] |{c} B2 B2 | [EG] [EG] [EG] [GB] |{B} A2 A2 | [DF] [DF] [DF] [FA] | %9
w: skum- le Død sig|skju- ler|i dets dy- be|Hu- ler,|Var- den op- pe|
w: om han snart kan|la- de|Fri- heds Bar- ri-|ka- de,|ned fra Tin- den|
w: Gam- le Bjør- ne-|skyt- te,|krans med Løv din|Hyt- te!|Tap- re Jæ- ger,|
 [DG] [DG] [EG] [GB] | [FA] [CF] [DG] [B,E] | [A,F]4 |] %12
w: paa dets Top- pe|spej- der Dag og|Kveld.|
w: o- ver Fien- den|som et U- vejr|gaa.|
w: tøm et Bæ- ger|for dit Fjeld og|den.|
V:2
 F,,2 F,2 | C,,2 C,2 | F,,A,, B,,C, | F,,F, F,, z | D,,2 D,2 | G,,2 G,2 | C,,2 C,2 | F,,2 F,2 | %8
 D,,D, D,,2 | B,,,B,, C,,C, | F,,A,, B,,C, | F,,F, F,, z |] %12
V:3
 x4 | x4 | x4 | x4 | x4 | D4 | x4 | C4 | x4 | x4 | x4 | x4 |] %12

